images/social-vk.svg

<svg width="48" height="40" viewBox="0 0 48 40" fill="none" xmlns="http://www.w3.org/2000/svg">
<path fill-rule="evenodd" clip-rule="evenodd" d="M35.1164 13.948C35.2824 13.402 35.1164 13 34.3214 13H31.6964C31.0284 13 30.7204 13.347 30.5534 13.73C30.5534 13.73 29.2184 16.926 27.3274 19.002C26.7154 19.604 26.4374 19.795 26.1034 19.795C25.9364 19.795 25.6854 19.604 25.6854 19.057V13.948C25.6854 13.292 25.5014 13 24.9454 13H20.8174C20.4004 13 20.1494 13.304 20.1494 13.593C20.1494 14.214 21.0954 14.358 21.1924 16.106V19.904C21.1924 20.737 21.0394 20.888 20.7054 20.888C19.8154 20.888 17.6504 17.677 16.3654 14.003C16.1164 13.288 15.8644 13 15.1934 13H12.5664C11.8164 13 11.6664 13.347 11.6664 13.73C11.6664 14.412 12.5564 17.8 15.8114 22.281C17.9814 25.341 21.0364 27 23.8194 27C25.4884 27 25.6944 26.632 25.6944 25.997V23.684C25.6944 22.947 25.8524 22.8 26.3814 22.8C26.7714 22.8 27.4384 22.992 28.9964 24.467C30.7764 26.216 31.0694 27 32.0714 27H34.6964C35.4464 27 35.8224 26.632 35.6064 25.904C35.3684 25.18 34.5184 24.129 33.3914 22.882C32.7794 22.172 31.8614 21.407 31.5824 21.024C31.1934 20.533 31.3044 20.314 31.5824 19.877C31.5824 19.877 34.7824 15.451 35.1154 13.948H35.1164Z" fill="#83B3D3"/>
</svg>

<svg xmlns="http://www.w3.org/2000/svg" width="48" height="40" fill="none" viewBox="0 0 48 40"><path fill="#83b3d3" fill-rule="evenodd" d="M35.116 13.948c.166-.546 0-.948-.795-.948h-2.625c-.668 0-.976.347-1.143.73 0 0-1.335 3.196-3.226 5.272-.612.602-.89.793-1.224.793-.167 0-.418-.191-.418-.738v-5.109c0-.656-.184-.948-.74-.948h-4.128c-.417 0-.668.304-.668.593 0 .621.946.765 1.043 2.513v3.798c0 .833-.153.984-.487.984-.89 0-3.055-3.211-4.34-6.885-.249-.715-.5-1.003-1.172-1.003h-2.627c-.75 0-.9.347-.9.73 0 .682.89 4.07 4.145 8.551C17.981 25.341 21.036 27 23.82 27c1.67 0 1.875-.368 1.875-1.003v-2.313c0-.737.158-.884.687-.884.39 0 1.057.192 2.615 1.667C30.776 26.216 31.07 27 32.071 27h2.625c.75 0 1.126-.368.91-1.096-.238-.724-1.088-1.775-2.215-3.022-.612-.71-1.53-1.475-1.809-1.858-.389-.491-.278-.71 0-1.147 0 0 3.2-4.426 3.533-5.929z" clip-rule="evenodd"/></svg>
